X:1
T:Title
L:1/8
Q:1/4=120
M:4/4
K:Bb
V:1 treble nm="Midi_1"
V:1
 fe | dc B2 ed"^Descant to St Theodulph,  AMNS 60/328" c2 | d4 d2 d2 | e2 g2 f3 e | d6 | %5
w: All *|glo * ry, laud * and|ho- nour to|thee, Re- deem- er,|King,|
 fd c2 d2 e2 | d2 g4 g2 | %7
w: to * whom the lips|of child- ren|
 d2"^Descant by Andrew Sims, \nto harmony by Noel Rawsthorne, \n21 April 2018\n" ef g2 f2 | %8
w: made sweet * ho- san-|
 f2 f6 |] %9
w: nas ring.|

